X: 1
T: Croaking Frog, The
M: 6/8
L: 1/8
R: jig
K: Cmaj
G,|:C2C EDC|GEC C2 A,|_B,2B, DCB,|FGF D2B,|
C2C EDC|GEC CG,A,|_B,FD =B,DG|1ECC C2G,:|2ECC C2f||
ece dBd|cBA G2G|_BAB FDF|_BAB d2f|
ece dBd|cBA G2E|FAF EGc|1BAB c2f:|2BAB  c2G,||
